X: 34262
T: Reid St. Sofa, The
R: reel
M: 4/4
K: Aminor
|:eAef eAcA|BGcG EGAF|EAAF AAFA|EFGc B2 cd|
eABc A2 Bc|BGBc ddef|ecAB GBdc|BABc BA A2:|
|:BcAE c2 AE|FFAF dFAB|ccAF DEFG|BGFA G2 AB|
cccc ccdc|Bd d/d/d G2 Bd|eAef ecAe|f/e/e dc Bc A2:|

